static/icon/badge-bigthum-up.svg

<svg height="20" viewBox="0 0 32 20" width="32" xmlns="http://www.w3.org/2000/svg"><g fill="none" fill-rule="evenodd"><path d="m28 .5h-24c-.966 0-1.841.392-2.475 1.025-.633.635-1.025 1.509-1.025 2.475v12c0 .966.392 1.841 1.025 2.475.635.633 1.509 1.025 2.475 1.025h24c.966 0 1.841-.392 2.475-1.025.633-.634 1.025-1.509 1.025-2.475v-12c0-.966-.392-1.841-1.025-2.475-.635-.633-1.509-1.025-2.475-1.025z" fill="#000" stroke="#ffd200"/><path d="m11.21 16.478c3.15 0 4.662-1.458 4.662-4.608v-7.956h-1.98v7.884c0 2.268-.846 3.006-2.592 3.006-1.782 0-2.7-.756-2.7-3.006v-7.884h-2.25v8.028c0 3.042 1.728 4.536 4.86 4.536zm9.72-.216v-4.626h2.25c2.574 0 4.212-1.35 4.212-3.924 0-2.448-1.458-3.798-4.356-3.798h-4.32v12.348zm1.836-6.282h-1.836v-4.356h1.872c1.638 0 2.268.594 2.268 2.214 0 1.44-.63 2.142-2.304 2.142z" fill="#ffd200" fill-rule="nonzero"/></g></svg>

<svg xmlns="http://www.w3.org/2000/svg" width="32" height="20" viewBox="0 0 32 20">
    <g fill="none" fill-rule="evenodd">
        <path fill="#000" stroke="#FFD200" d="M28 .5H4c-.966 0-1.841.392-2.475 1.025C.892 2.16.5 3.034.5 4v12c0 .966.392 1.841 1.025 2.475C2.16 19.108 3.034 19.5 4 19.5h24c.966 0 1.841-.392 2.475-1.025.633-.634 1.025-1.509 1.025-2.475V4c0-.966-.392-1.841-1.025-2.475C29.84.892 28.966.5 28 .5z"/>
        <path fill="#FFD200" fill-rule="nonzero" d="M11.21 16.478c3.15 0 4.662-1.458 4.662-4.608V3.914h-1.98v7.884c0 2.268-.846 3.006-2.592 3.006-1.782 0-2.7-.756-2.7-3.006V3.914H6.35v8.028c0 3.042 1.728 4.536 4.86 4.536zm9.72-.216v-4.626h2.25c2.574 0 4.212-1.35 4.212-3.924 0-2.448-1.458-3.798-4.356-3.798h-4.32v12.348h2.214zm1.836-6.282H20.93V5.624h1.872c1.638 0 2.268.594 2.268 2.214 0 1.44-.63 2.142-2.304 2.142z"/>
    </g>
</svg>
